X:2
T:Clank" The
T:highli Gaymne's Collin, #297
Z:id:hn-hf-32
M:3/4
L:1/8
K:Emir
GFGA B2A>BcB |
c


*****************************


10100 2 1.4198928 

<start>
M:C|
K:D
Fd|(3ded dB GABA|GBdd BGBd|e2df edAG|FDFA GAFG|(3Bde d2 (3def (3egf|efga gfge|fedB BFAB|


*****************************


10200 2 1.4412172 

<startouphoton:
GDED GEDGB | A2AG A2EF | E2D2 G2z2 :|
[2A2 (3cdc jdcAA|G2GA B2cB|cdGF G2:|
<end>
<start>



*****************************


10300 2 1.4537376 

<startou"coGhin (5155)
H:E simes, The
T:Untrosan Conn chloghar Sal Comel an or ohe Wouq Mick
T:Pir tuin S


*****************************


10400 2 1.860975 

<start>
